public/assets/icons/mayor.svg

<svg width="400" height="400" viewBox="0 0 400 400" fill="none" xmlns="http://www.w3.org/2000/svg">
<path fill-rule="evenodd" clip-rule="evenodd" d="M198.617 70.7052C198.617 71.2369 198.177 71.6702 197.639 71.6702C197.101 71.6702 193.393 73.2343 189.399 75.144C185.405 77.0549 178.53 80.2863 174.121 82.3256C163.519 87.2302 161.311 88.2721 145.615 95.7826C126.285 105.032 120.987 107.552 109.539 112.939C103.905 115.591 94.9622 119.824 89.6687 122.347L80.042 126.935L80.3144 130.703L80.5881 134.471L199.731 134.698L318.874 134.923V131.021C318.874 126.248 318.883 126.256 306.818 120.812C301.445 118.387 291.036 113.479 283.688 109.906C276.339 106.331 270.125 103.358 269.88 103.297C269.358 103.168 260.258 98.9131 248.948 93.508C244.537 91.4014 238.725 88.6766 236.031 87.4535C230.524 84.9544 214.511 77.3946 205.744 73.1538C202.559 71.6138 199.653 70.2154 199.286 70.0474C198.919 69.8781 198.617 70.1746 198.617 70.7052ZM104.194 146.952V153.623H199.953H295.714V146.941V140.259L199.953 140.27L104.194 140.28V146.952ZM112.708 160.943C112.194 162.572 111.014 217.05 111.222 229.587C111.317 235.357 111.132 240.505 110.809 241.027C110.486 241.548 110.079 249.554 109.905 258.819L109.587 275.662H123.009H136.43L135.796 259.404C135.448 250.463 135.039 237.134 134.888 229.786C134.619 216.787 134.217 203.859 133.168 174.557L132.658 160.304L122.863 160.052C115.498 159.863 112.979 160.084 112.708 160.943ZM164.48 160.526C163.817 161.652 163.033 183.703 162.491 216.424C162.207 233.572 161.736 251.009 161.444 255.173C161.152 259.337 160.879 265.551 160.837 268.981L160.759 275.216L174.025 275.464L187.291 275.711L186.736 254.975C186.432 243.571 185.879 227.024 185.51 218.205C185.141 209.386 184.833 192.951 184.824 181.684C184.816 169.072 184.468 160.943 183.919 160.541C182.744 159.678 164.986 159.665 164.48 160.526ZM214.625 168.544C214.595 177.915 214.111 195.808 213.162 222.66C212.832 231.968 212.415 247.702 212.236 257.623L211.909 275.662H225.408H238.905L238.246 261.186C237.883 253.225 237.454 241.3 237.292 234.685C236.938 220.187 236.495 206.031 235.569 179.679L234.872 159.859H224.762H214.651L214.625 168.544ZM266.01 160.526C265.783 160.894 265.542 167.373 265.475 174.926C265.407 182.477 265.136 189.003 264.875 189.427C264.613 189.851 264.242 205.672 264.051 224.586C263.859 243.5 263.49 259.188 263.229 259.45C262.967 259.71 262.754 263.465 262.754 267.792V275.662H276.195H289.637L289.11 257.623C288.819 247.702 288.469 236.978 288.332 233.794C288.194 230.609 287.781 214.776 287.412 198.608C287.044 182.44 286.528 167.108 286.265 164.536L285.787 159.859H276.104C270.779 159.859 266.237 160.159 266.01 160.526ZM92.1306 282.193C91.9265 282.765 91.6516 286.239 91.5184 289.914L91.2771 296.594L85.0414 297.04L78.8068 297.486V304.611V311.738L71.9025 311.998L64.9993 312.259V321.129V330H199.953H334.909V321.632C334.909 311.905 334.995 312.001 326.001 311.841L320.21 311.738L319.952 304.429L319.694 297.12L313.717 296.857L307.739 296.594L307.294 289.023L306.848 281.451L199.675 281.302C118.674 281.189 92.4102 281.408 92.1306 282.193Z" fill="#0000FF"/>
</svg>

<svg width="400" height="400" viewBox="0 0 400 400" fill="none" xmlns="http://www.w3.org/2000/svg">
<path style="fill:#0000FF;" d="M198.663,70.705c0,0.532-0.44,0.965-0.978,0.965
	c-0.538,0-4.246,1.564-8.24,3.474c-3.994,1.911-10.869,5.142-15.278,7.182c-10.602,4.905-12.81,5.947-28.506,13.457
	c-19.33,9.249-24.628,11.769-36.076,17.156c-5.634,2.652-14.577,6.885-19.87,9.408l-9.627,4.588l0.272,3.768l0.274,3.768
	l119.143,0.227l119.143,0.225v-3.902c0-4.773,0.009-4.765-12.056-10.209c-5.373-2.425-15.782-7.333-23.13-10.906
	c-7.349-3.575-13.563-6.548-13.808-6.609c-0.522-0.129-9.622-4.384-20.932-9.789c-4.411-2.107-10.223-4.831-12.917-6.055
	c-5.507-2.499-21.52-10.059-30.287-14.3c-3.185-1.54-6.091-2.938-6.458-3.106C198.965,69.878,198.663,70.175,198.663,70.705z
	 M104.24,146.952v6.671h95.759h95.761v-6.682v-6.682l-95.761,0.011l-95.759,0.01V146.952z M112.754,160.943
	c-0.514,1.629-1.694,56.107-1.486,68.644c0.095,5.77-0.09,10.918-0.413,11.44c-0.323,0.521-0.73,8.527-0.904,17.792l-0.318,16.843
	h13.422h13.421l-0.634-16.258c-0.348-8.941-0.757-22.27-0.908-29.618c-0.269-12.999-0.671-25.927-1.72-55.229l-0.51-14.253
	l-9.795-0.252C115.544,159.863,113.025,160.084,112.754,160.943z M164.526,160.526c-0.663,1.126-1.447,23.177-1.989,55.898
	c-0.284,17.148-0.755,34.585-1.047,38.749c-0.292,4.164-0.565,10.378-0.607,13.808l-0.078,6.235l13.266,0.248l13.266,0.247
	l-0.555-20.736c-0.304-11.404-0.857-27.951-1.226-36.77c-0.369-8.819-0.677-25.254-0.686-36.521
	c-0.008-12.612-0.356-20.741-0.905-21.143C182.79,159.678,165.032,159.665,164.526,160.526z M214.671,168.544
	c-0.03,9.371-0.514,27.264-1.463,54.116c-0.33,9.308-0.747,25.042-0.926,34.963l-0.327,18.039h13.499h13.497l-0.659-14.476
	c-0.363-7.961-0.792-19.886-0.954-26.501c-0.354-14.498-0.797-28.654-1.723-55.006l-0.697-19.82h-10.11h-10.111L214.671,168.544z
	 M266.056,160.526c-0.227,0.368-0.468,6.847-0.535,14.4c-0.068,7.551-0.339,14.077-0.6,14.501
	c-0.262,0.424-0.633,16.245-0.824,35.159c-0.192,18.914-0.561,34.602-0.822,34.864c-0.262,0.26-0.475,4.015-0.475,8.342v7.87h13.441
	h13.442l-0.527-18.039c-0.291-9.921-0.641-20.645-0.778-23.829c-0.138-3.185-0.551-19.018-0.92-35.186
	c-0.368-16.168-0.884-31.5-1.147-34.072l-0.478-4.677h-9.683C270.825,159.859,266.283,160.159,266.056,160.526z M92.176,282.193
	c-0.204,0.572-0.479,4.046-0.612,7.721l-0.241,6.68l-6.236,0.446l-6.235,0.446v7.125v7.127l-6.904,0.26l-6.903,0.261v8.87V330
	h134.954h134.956v-8.368c0-9.727,0.086-9.631-8.908-9.791l-5.791-0.103l-0.258-7.309l-0.258-7.309l-5.977-0.263l-5.978-0.263
	l-0.445-7.571l-0.446-7.572l-107.173-0.149C118.72,281.189,92.456,281.408,92.176,282.193z"/>
</svg>
